Numix-GalliumOS/32/mimetypes/unknown.svg

<?xml version="1.0" encoding="UTF-8" standalone="no"?>
<svg
   xmlns:dc="http://purl.org/dc/elements/1.1/"
   xmlns:cc="http://creativecommons.org/ns#"
   xmlns:rdf="http://www.w3.org/1999/02/22-rdf-syntax-ns#"
   xmlns:svg="http://www.w3.org/2000/svg"
   xmlns="http://www.w3.org/2000/svg"
   xmlns:sodipodi="http://sodipodi.sourceforge.net/DTD/sodipodi-0.dtd"
   xmlns:inkscape="http://www.inkscape.org/namespaces/inkscape"
   width="32"
   height="32"
   viewBox="0 0 32 32"
   id="svg2"
   version="1.1"
   inkscape:version="0.48.5 r10040"
   sodipodi:docname="unknown.svg">
  <metadata
     id="metadata16">
    <rdf:RDF>
      <cc:Work
         rdf:about="">
        <dc:format>image/svg+xml</dc:format>
        <dc:type
           rdf:resource="http://purl.org/dc/dcmitype/StillImage" />
      </cc:Work>
    </rdf:RDF>
  </metadata>
  <defs
     id="defs14" />
  <sodipodi:namedview
     pagecolor="#ffffff"
     bordercolor="#666666"
     borderopacity="1"
     objecttolerance="10"
     gridtolerance="10"
     guidetolerance="10"
     inkscape:pageopacity="0"
     inkscape:pageshadow="2"
     inkscape:window-width="1280"
     inkscape:window-height="970"
     id="namedview12"
     showgrid="false"
     inkscape:zoom="7.375"
     inkscape:cx="16"
     inkscape:cy="16"
     inkscape:window-x="0"
     inkscape:window-y="0"
     inkscape:window-maximized="1"
     inkscape:current-layer="svg2" />
  <path
     style="fill:#dcdcdc;fill-opacity:1"
     d="M 5.335888,2.976e-4 C 4.648414,3.126e-4 4,0.6767885 4,1.3940318 L 4,30.606268 C 4,31.282757 4.687474,32 5.335888,32 l 21.327332,0 c 0.648414,0 1.335888,-0.717243 1.335888,-1.393732 L 28,9.0000003 l -9,-9 z"
     id="path4-1"
     inkscape:connector-curvature="0"
     sodipodi:nodetypes="ssssssccs" />
  <path
     style="fill:#000000;fill-opacity:0.19599998"
     d="M 21,9.0000003 28,16 28,9.0000003 z"
     id="path6-4"
     inkscape:connector-curvature="0"
     sodipodi:nodetypes="cccc" />
  <path
     style="fill:#ffffff;fill-opacity:0.39200003"
     d="m 19.000306,2.976e-4 8.991594,8.9997027 -7.613262,0 c -0.672951,0 -1.378332,-0.7134896 -1.378332,-1.3864402 z"
     id="path8-6"
     inkscape:connector-curvature="0"
     sodipodi:nodetypes="ccssc" />
  <path
     style="fill:#888888"
     d="m 14.625,21.191406 0,-0.476562 c 0,-0.6875 0.121094,-1.253906 0.363281,-1.695313 0.238281,-0.445312 0.6875,-0.914062 1.34375,-1.410156 0.90625,-0.675781 1.480469,-1.183594 1.714844,-1.523437 0.238281,-0.34375 0.359375,-0.753907 0.359375,-1.234376 0,-0.601562 -0.222656,-1.0625 -0.660156,-1.386718 -0.4375,-0.328125 -1.0625,-0.492188 -1.886719,-0.492188 -0.527344,0 -1.042969,0.05469 -1.542969,0.167969 -0.5,0.105469 -1.078125,0.300781 -1.726562,0.589844 L 12,12.539062 c 1.261719,-0.582031 2.582031,-0.871093 3.960938,-0.871093 1.277343,0 2.269531,0.273437 2.976562,0.828125 0.707031,0.550781 1.0625,1.332031 1.0625,2.335937 0,0.429688 -0.06641,0.808594 -0.199219,1.136719 -0.128906,0.324219 -0.320312,0.632812 -0.574219,0.925781 -0.253906,0.289063 -0.800781,0.757813 -1.640624,1.402344 -0.675782,0.507813 -1.125,0.925781 -1.34375,1.261719 -0.214844,0.335937 -0.324219,0.78125 -0.324219,1.339844 l 0,0.292968 -1.292969,0 m -0.488281,2.617188 c 0,-0.796875 0.398437,-1.199219 1.203125,-1.199219 0.386718,0 0.683594,0.105469 0.890625,0.308594 0.214843,0.207031 0.320312,0.503906 0.320312,0.890625 0,0.378906 -0.105469,0.671875 -0.320312,0.882812 C 16.015625,24.898438 15.71875,25 15.339844,25 14.992188,25 14.703125,24.910156 14.476562,24.726562 14.25,24.539062 14.136719,24.234375 14.136719,23.808594"
     id="path10"
     inkscape:connector-curvature="0" />
</svg>

<svg xmlns="http://www.w3.org/2000/svg" viewBox="0 0 32 32">
 <path d="m 5.336 0 c -0.687 0 -1.336 0.676 -1.336 1.394 l 0 29.21 c 0 0.676 0.687 1.394 1.336 1.394 l 21.327 0 c 0.648 0 1.336 -0.717 1.336 -1.394 l 0.001 -21.606 l -9 -9 z" style="fill:#dcdcdc;fill-opacity:1"/>
 <path d="m 21 9 7 7 0 -7 z" style="fill:#000;fill-opacity:0.196"/>
 <path d="m 19 0 8.992 9 -7.613 0 c -0.673 0 -1.378 -0.713 -1.378 -1.386 z" style="fill:#fff;fill-opacity:0.392"/>
 <path d="m 14.625 21.19 0 -0.477 c 0 -0.688 0.121 -1.254 0.363 -1.695 0.238 -0.445 0.688 -0.914 1.344 -1.41 0.906 -0.676 1.48 -1.184 1.715 -1.523 0.238 -0.344 0.359 -0.754 0.359 -1.234 0 -0.602 -0.223 -1.063 -0.66 -1.387 -0.438 -0.328 -1.063 -0.492 -1.887 -0.492 -0.527 0 -1.043 0.055 -1.543 0.168 -0.5 0.105 -1.078 0.301 -1.727 0.59 l -0.59 -1.191 c 1.262 -0.582 2.582 -0.871 3.961 -0.871 1.277 0 2.27 0.273 2.977 0.828 0.707 0.551 1.063 1.332 1.063 2.336 0 0.43 -0.066 0.809 -0.199 1.137 -0.129 0.324 -0.32 0.633 -0.574 0.926 -0.254 0.289 -0.801 0.758 -1.641 1.402 -0.676 0.508 -1.125 0.926 -1.344 1.262 -0.215 0.336 -0.324 0.781 -0.324 1.34 l 0 0.293 -1.293 0 m -0.488 2.617 c 0 -0.797 0.398 -1.199 1.203 -1.199 0.387 0 0.684 0.105 0.891 0.309 0.215 0.207 0.32 0.504 0.32 0.891 0 0.379 -0.105 0.672 -0.32 0.883 c -0.215 0.207 -0.512 0.309 -0.891 0.309 -0.348 0 -0.637 -0.09 -0.863 -0.273 -0.227 -0.188 -0.34 -0.492 -0.34 -0.918" style="fill:#888"/>
</svg>
